public/improve.svg

<svg width="72" height="73" viewBox="0 0 72 73" fill="none" xmlns="http://www.w3.org/2000/svg">
<mask id="mask0_9_86494" style="mask-type:luminance" maskUnits="userSpaceOnUse" x="0" y="0" width="72" height="73">
<path d="M72 0H0V73H72V0Z" fill="white"/>
</mask>
<g mask="url(#mask0_9_86494)">
<path fill-rule="evenodd" clip-rule="evenodd" d="M32.624 5.36124C16.1412 15.0652 2.97117 36.268 1.33868 55.7739C1.10195 58.5534 0.614731 64.3379 2.90529 66.543C4.63735 67.7282 6.43539 68.8149 8.29074 69.798C7.87162 68.8455 7.62647 67.8262 7.5668 66.788C6.23184 50.659 15.3094 32.198 24.8865 21.0521C32.9882 11.6213 45.5153 2.61922 56.8205 4.50365L54.4784 3.1611C48.5421 -0.174669 41.181 0.566855 32.6247 5.36045L32.624 5.36124ZM10.7558 72.3749C10.6567 72.3738 10.5595 72.3491 10.472 72.3029C10.1925 72.1379 9.73358 71.8784 9.1689 71.5635C5.98354 69.7829 2.8271 67.9929 2.13646 67.3429C-0.551553 64.7659 -0.0454959 58.8589 0.220192 55.6795C1.90047 35.8386 15.2739 14.2724 32.0593 4.40346V4.39484C40.9892 -0.603415 48.7317 -1.34279 55.025 2.1998L62.4361 6.45872C62.5004 6.49363 62.5568 6.54114 62.6021 6.59841C62.6474 6.65568 62.6806 6.72154 62.6996 6.79194C62.7186 6.86233 62.7231 6.93582 62.7128 7.00798C62.7024 7.08015 62.6775 7.1495 62.6395 7.2118C62.5673 7.33872 62.4478 7.43221 62.3069 7.47201C62.1659 7.5118 62.0149 7.49463 61.8866 7.42433C49.9379 0.866645 34.9457 11.0556 25.732 21.7727C16.2954 32.7392 7.36554 50.886 8.68095 66.6979C8.87063 68.9873 9.59454 70.4235 11.0518 71.3517C11.1534 71.4162 11.2311 71.5117 11.2736 71.6239C11.316 71.7361 11.3208 71.8589 11.2872 71.9741C11.2536 72.0892 11.1835 72.1905 11.0873 72.2626C10.9911 72.3347 10.874 72.3739 10.7536 72.3742L10.7558 72.3749Z" fill="#1B69FF"/>
<path fill-rule="evenodd" clip-rule="evenodd" d="M39.7357 9.13725C48.4954 4.11089 56.4269 3.63959 62.1577 6.94221C67.9029 10.2441 71.4517 17.3193 71.4517 27.3864C71.4517 28.3715 71.4047 29.4308 71.3381 30.4483C71.0432 33.5088 70.0319 36.458 68.3851 39.0591C66.8725 41.66 64.7384 43.8491 62.1722 45.4323L52.2338 51.1367C50.9005 53.8104 49.2617 56.3221 47.3501 58.6219C45.2182 61.259 42.6357 63.5011 39.7212 65.2451C37.4379 66.6731 34.7901 67.417 32.0937 67.3882C30.3017 67.3288 28.5837 66.6625 27.2237 65.4995L17.2861 71.2047C14.8869 72.5738 12.7007 72.7822 11.0537 71.9866C9.40671 71.191 8.32293 69.3815 8.11951 66.7483C8.05797 65.8065 8.00586 64.794 8.00586 63.8096C8.02468 53.7432 11.5735 42.5887 17.3187 32.6959C23.0524 22.7981 30.9904 14.1636 39.7357 9.13725Z" fill="#1B69FF"/>
<path fill-rule="evenodd" clip-rule="evenodd" d="M53.8815 5.37239C49.6464 5.37239 44.9328 6.79917 40.0201 9.61609C31.6346 14.4306 23.7408 22.7257 17.7877 32.9716C11.8514 43.2124 8.57406 54.1644 8.57406 63.8078C8.57406 64.7259 8.60738 65.7247 8.68267 66.7047C8.85786 69.0504 9.78015 70.7511 11.2889 71.4861C12.8272 72.2255 14.8528 71.9566 17.0008 70.7229L26.9391 65.0185C27.0406 64.9599 27.1579 64.9342 27.2747 64.9452C27.3915 64.9562 27.502 65.0032 27.5907 65.0797C28.8564 66.1627 30.4559 66.7826 32.124 66.8366C34.7107 66.8503 37.2481 66.1318 39.4402 64.7648C42.3014 63.0543 44.8374 60.8552 46.9316 58.2684C48.8095 55.9997 50.4208 53.5249 51.7342 50.8921C51.7817 50.794 51.8573 50.712 51.9514 50.6564L61.8891 44.9519C64.3758 43.4128 66.4457 41.2907 67.918 38.7711C69.5225 36.2494 70.5022 33.3843 70.7762 30.4119C70.8566 29.3756 70.8848 28.3301 70.8848 27.3853C70.8848 17.8558 67.6994 10.7663 61.8883 7.41754C59.4487 6.04124 56.6854 5.33491 53.8815 5.37239ZM13.174 73.003C12.3538 73.013 11.5424 72.8342 10.8031 72.4806C8.92086 71.5668 7.77412 69.5404 7.56635 66.7876C7.49395 65.7787 7.45703 64.7526 7.45703 63.8107C7.45703 53.9792 10.7872 42.8297 16.8314 32.4189C22.8756 22.008 30.915 13.5716 39.4713 8.6584C48.108 3.69329 56.2712 2.9114 62.4371 6.46336C68.6029 10.0153 72.0011 17.4486 72.0011 27.3874C72.0011 28.3624 71.9678 29.4319 71.8874 30.4861C71.59 33.6335 70.5593 36.6684 68.8773 39.3499C67.3008 42.0299 65.0885 44.2846 62.4342 45.9169L52.6609 51.5378C51.3237 54.1974 49.6852 56.696 47.7772 58.9847C45.6013 61.6682 42.9698 63.9513 40.002 65.7304C37.618 67.2001 34.8652 67.9693 32.061 67.9492C30.2825 67.8781 28.5705 67.2573 27.1628 66.1729L17.5561 71.69C16.236 72.5013 14.7254 72.954 13.1748 73.003H13.174Z" fill="#1B69FF"/>
<path fill-rule="evenodd" clip-rule="evenodd" d="M58.2003 13.7688C53.4729 11.0506 46.9422 11.4376 39.7346 15.5776C32.527 19.7176 25.997 26.8258 21.274 34.9703C16.551 43.1148 13.627 52.2963 13.627 60.5871C13.627 61.4439 13.6407 62.2121 13.7073 63.0322C13.698 63.4408 13.7972 63.8446 13.995 64.2027C14.1928 64.5608 14.4822 64.8605 14.8338 65.0716C15.2374 65.2223 15.6721 65.272 16.0996 65.2162C16.527 65.1604 16.9341 65.0008 17.2851 64.7516L28.638 58.2321V58.2466C29.5465 57.7241 30.4413 57.7241 30.9763 58.3597C31.4399 58.9172 32.017 59.3705 32.6695 59.6897C33.3221 60.0088 34.0352 60.1864 34.7618 60.2109C36.5173 60.2214 38.2387 59.7291 39.7208 58.7927C41.614 57.6687 43.2931 56.2209 44.6807 54.5159C46.1738 52.7144 47.411 50.7171 48.3576 48.5801C48.8094 47.3139 49.6698 46.2324 50.8045 45.5045L62.1704 38.985C63.1733 38.3667 64.0084 37.5127 64.6021 36.4981C65.2439 35.4871 65.6364 34.3394 65.7475 33.1486C65.8133 32.2579 65.8278 31.4624 65.8278 30.6048C65.8437 22.314 62.9233 16.4863 58.2003 13.7688Z" fill="white"/>
<path fill-rule="evenodd" clip-rule="evenodd" d="M51.3873 12.5817C47.9181 12.5817 44.0377 13.7498 40.0213 16.0579C33.1315 20.0149 26.6428 26.8313 21.7641 35.2496C16.8855 43.6679 14.1779 52.6642 14.1779 60.5875C14.1779 61.4306 14.2112 62.1844 14.2582 62.99C14.2455 63.3037 14.3157 63.6152 14.4618 63.8935C14.6079 64.1717 14.8248 64.4068 15.0908 64.5755C15.4102 64.6828 15.751 64.7114 16.084 64.6589C16.417 64.6065 16.7322 64.4745 17.0027 64.2742L28.3556 57.7547C28.3913 57.7387 28.4278 57.7245 28.465 57.7122C29.6102 57.0953 30.7273 57.2034 31.4172 58.0091C31.8294 58.5068 32.3436 58.9112 32.9254 59.1952C33.5071 59.4793 34.1431 59.6366 34.7908 59.6564C36.4375 59.6597 38.0505 59.1919 39.4378 58.3089C41.2762 57.2162 42.9083 55.8117 44.26 54.1588C45.7178 52.3965 46.9263 50.444 47.8522 48.3556C48.3521 46.9783 49.2973 45.8052 50.5395 45.0205L61.8881 38.501C62.8114 37.9282 63.5814 37.1411 64.1323 36.2073C64.7222 35.2709 65.0821 34.2094 65.1828 33.1087C65.2443 32.2324 65.2776 31.4454 65.2776 30.6023C65.2776 22.7871 62.6714 16.9825 57.9136 14.2442C55.9248 13.1199 53.6706 12.5442 51.3836 12.5766L51.3873 12.5817ZM15.6533 65.8027C15.2901 65.8061 14.9309 65.7272 14.6028 65.572C14.1575 65.3251 13.788 64.9623 13.5338 64.5225C13.2795 64.0827 13.15 63.5824 13.1593 63.0751C13.0927 62.2413 13.0645 61.4587 13.0645 60.5875C13.0645 52.4711 15.8097 43.2767 20.7875 34.6933C25.7827 26.1107 32.4053 19.148 39.4711 15.0966C46.6121 10.9934 53.3651 10.3485 58.4805 13.2951C63.5872 16.2352 66.3932 22.3821 66.3932 30.6066C66.3932 31.4778 66.3642 32.2879 66.2983 33.1879C66.181 34.4643 65.7679 35.6962 65.0915 36.7867C64.4403 37.8755 63.5365 38.793 62.4556 39.4624L51.0897 45.9869C50.0648 46.6502 49.2868 47.6299 48.8752 48.7757C47.9127 50.9728 46.6455 53.0247 45.1106 54.8715C43.6813 56.6266 41.9527 58.1175 40.0039 59.276C38.4252 60.2627 36.5963 60.7807 34.7321 60.7691C33.9306 60.7396 33.1445 60.5419 32.4252 60.1886C31.7059 59.8354 31.0698 59.3348 30.5586 58.7196C30.0852 58.1503 29.2555 58.5366 28.9254 58.7297C28.8921 58.7434 28.8588 58.7621 28.8305 58.7715L17.5725 65.2348C16.9935 65.5875 16.3318 65.7831 15.6533 65.8019V65.8027Z" fill="#1B69FF"/>
<path fill-rule="evenodd" clip-rule="evenodd" d="M38.6523 52.4708C38.0527 52.478 37.4731 52.2556 37.0335 51.8496C36.2372 51.0865 35.9549 49.7389 36.2821 48.1564C36.8308 45.4613 38.918 42.9132 41.024 42.3525C41.4214 42.2363 41.8426 42.2269 42.2448 42.3253C42.6471 42.4238 43.0159 42.6266 43.3138 42.9131C43.7591 43.3961 44.076 43.9822 44.2356 44.6182C44.3952 45.2542 44.3923 45.9198 44.2274 46.5544C43.6591 49.2488 41.572 51.7978 39.4711 52.3577C39.2041 52.4297 38.9289 52.4665 38.6523 52.4672V52.4708Z" fill="#1B69FF"/>
<path fill-rule="evenodd" clip-rule="evenodd" d="M60.0186 34.6359C59.8958 34.636 59.7765 34.5957 59.6791 34.5213C59.5817 34.4469 59.5117 34.3427 59.4799 34.2247C59.4482 34.1067 59.4564 33.9815 59.5034 33.8686C59.5504 33.7557 59.6335 33.6614 59.7398 33.6004L62.7681 31.8615C62.8955 31.7891 63.0466 31.7701 63.1881 31.8085C63.3296 31.8469 63.4501 31.9398 63.5229 32.0666C63.5956 32.1934 63.6148 32.3437 63.5762 32.4846C63.5375 32.6255 63.4443 32.7454 63.3169 32.8178L60.2879 34.5603C60.2064 34.6087 60.1134 34.6348 60.0186 34.6359Z" fill="#1B69FF"/>
<path fill-rule="evenodd" clip-rule="evenodd" d="M54.0839 21.5586C53.9858 21.5609 53.8891 21.5359 53.8044 21.4865C53.7404 21.4512 53.6842 21.4036 53.6389 21.3463C53.5937 21.2891 53.5605 21.2234 53.5411 21.1531C53.5217 21.0829 53.5166 21.0096 53.5262 20.9374C53.5357 20.8652 53.5597 20.7956 53.5967 20.7328L55.7497 17.0352C55.7854 16.9707 55.8335 16.9141 55.8915 16.8685C55.9495 16.823 56.0161 16.7894 56.0873 16.7698C56.1585 16.7503 56.2329 16.7451 56.3062 16.7546C56.3794 16.7641 56.45 16.7881 56.5138 16.8252C56.5777 16.8622 56.6334 16.9116 56.6777 16.9704C56.722 17.0292 56.7541 17.0963 56.772 17.1676C56.7899 17.239 56.7933 17.3132 56.782 17.3859C56.7706 17.4585 56.7448 17.5282 56.706 17.5908L54.5573 21.284C54.5107 21.3681 54.4421 21.438 54.3587 21.4864C54.2753 21.5347 54.1804 21.5597 54.0839 21.5586Z" fill="#1B69FF"/>
<path fill-rule="evenodd" clip-rule="evenodd" d="M39.7363 22.9598C39.6636 22.9604 39.5916 22.9465 39.5245 22.9189C39.4573 22.8913 39.3963 22.8507 39.3451 22.7993C39.294 22.748 39.2537 22.6869 39.2266 22.6198C39.1996 22.5527 39.1863 22.4808 39.1876 22.4085V18.9228C39.1874 18.777 39.2448 18.637 39.3474 18.533C39.4501 18.4291 39.5898 18.3695 39.7363 18.3672C39.8103 18.3664 39.8837 18.3801 39.9524 18.4076C40.021 18.4351 40.0835 18.4759 40.1363 18.5275C40.189 18.5791 40.2309 18.6407 40.2597 18.7085C40.2885 18.7764 40.3035 18.8492 40.3039 18.9228V22.4085C40.3034 22.4819 40.2883 22.5545 40.2594 22.6221C40.2306 22.6897 40.1885 22.7509 40.1357 22.8022C40.0829 22.8534 40.0205 22.8938 39.9519 22.9208C39.8833 22.9479 39.81 22.9611 39.7363 22.9598Z" fill="#1B69FF"/>
<path fill-rule="evenodd" clip-rule="evenodd" d="M25.3879 38.0293C25.289 38.0276 25.1918 38.0029 25.1041 37.9572L22.9699 36.7235C22.9066 36.6876 22.851 36.6395 22.8065 36.5821C22.7619 36.5246 22.7292 36.459 22.7103 36.3889C22.6914 36.3188 22.6866 36.2457 22.6963 36.1737C22.7059 36.1018 22.7298 36.0324 22.7665 35.9697C22.8018 35.9065 22.8494 35.8509 22.9066 35.8063C22.9638 35.7617 23.0294 35.729 23.0996 35.7101C23.1697 35.6912 23.243 35.6866 23.315 35.6964C23.3869 35.7062 23.4562 35.7303 23.5187 35.7672L25.6674 37.001C25.7314 37.0362 25.7877 37.0838 25.8329 37.1411C25.8781 37.1983 25.9114 37.264 25.9307 37.3343C25.9501 37.4045 25.9552 37.4778 25.9456 37.55C25.9361 37.6222 25.9121 37.6919 25.8751 37.7547C25.8239 37.8378 25.7523 37.9065 25.6671 37.9545C25.5819 38.0025 25.4858 38.0282 25.3879 38.0293Z" fill="#1B69FF"/>
<path fill-rule="evenodd" clip-rule="evenodd" d="M16.4063 59.67C16.3107 59.6711 16.2166 59.6463 16.134 59.5982C16.0515 59.55 15.9837 59.4805 15.9379 59.397C15.8641 59.2695 15.8441 59.1182 15.8822 58.9761C15.9203 58.8339 16.0135 58.7127 16.1413 58.6389L19.1703 56.8956C19.2334 56.86 19.303 56.8372 19.375 56.8283C19.447 56.8195 19.52 56.8249 19.5899 56.8442C19.6598 56.8634 19.7253 56.8962 19.7825 56.9407C19.8396 56.9851 19.8875 57.0404 19.9232 57.1032C19.9608 57.1656 19.9854 57.2349 19.9956 57.307C20.0057 57.379 20.0011 57.4525 19.9821 57.5228C19.9631 57.593 19.9301 57.6587 19.8851 57.716C19.84 57.7733 19.7838 57.821 19.7198 57.8562L16.6908 59.5995C16.6029 59.645 16.5054 59.6692 16.4063 59.67Z" fill="#1B69FF"/>
<path fill-rule="evenodd" clip-rule="evenodd" d="M43.2045 44.1653C43.0786 44.1661 42.9565 44.123 42.8592 44.0435C42.8013 43.9985 42.7528 43.9425 42.7167 43.8788C42.6805 43.815 42.6574 43.7449 42.6485 43.6722C42.6397 43.5996 42.6455 43.5258 42.6653 43.4554C42.6852 43.3849 42.7189 43.319 42.7644 43.2616L59.0292 23.2225C59.0752 23.1657 59.132 23.1185 59.1962 23.0836C59.2605 23.0486 59.3312 23.0266 59.404 23.0188C59.4769 23.011 59.5505 23.0175 59.6208 23.0381C59.6911 23.0586 59.7566 23.0928 59.8136 23.1385C59.8707 23.1843 59.9181 23.2408 59.9532 23.3048C59.9884 23.3688 60.0105 23.439 60.0183 23.5115C60.0261 23.584 60.0195 23.6573 59.9988 23.7273C59.9782 23.7973 59.944 23.8626 59.898 23.9193L43.6331 43.9585C43.5823 44.0232 43.5172 44.0755 43.4429 44.1113C43.3686 44.1472 43.2871 44.1656 43.2045 44.1653Z" fill="#1B69FF"/>
</g>
</svg>

<svg xmlns="http://www.w3.org/2000/svg" width="72" height="73" fill="none" viewBox="0 0 72 73"><mask id="a" width="72" height="73" x="0" y="0" maskUnits="userSpaceOnUse" style="mask-type:luminance"><path fill="#fff" d="M72 0H0v73h72z"/></mask><g fill-rule="evenodd" clip-rule="evenodd" mask="url(#a)"><path fill="#1b69ff" d="M32.624 5.361C16.141 15.065 2.971 36.268 1.339 55.774c-.237 2.78-.724 8.564 1.566 10.769a56 56 0 0 0 5.386 3.255 8.7 8.7 0 0 1-.724-3.01c-1.335-16.129 7.742-34.59 17.32-45.736C32.988 11.622 45.515 2.62 56.82 4.504L54.478 3.16C48.542-.175 41.181.567 32.625 5.361zM10.756 72.375a.6.6 0 0 1-.284-.072c-.28-.165-.738-.425-1.303-.74-3.185-1.78-6.342-3.57-7.033-4.22C-.552 64.766-.045 58.859.22 55.679 1.9 35.84 15.274 14.273 32.06 4.403v-.008C40.99-.603 48.731-1.343 55.024 2.2l7.411 4.259a.54.54 0 0 1 .203.753.557.557 0 0 1-.752.212C49.937.867 34.946 11.056 25.732 21.773 16.295 32.739 7.366 50.886 8.681 66.698c.19 2.29.914 3.726 2.37 4.654a.555.555 0 0 1-.297 1.022z"/><path fill="#1b69ff" d="M39.736 9.137c8.76-5.026 16.69-5.497 22.422-2.195 5.745 3.302 9.294 10.377 9.294 20.444 0 .986-.047 2.045-.114 3.062a19.6 19.6 0 0 1-2.953 8.611 18.3 18.3 0 0 1-6.213 6.373l-9.938 5.705a38.8 38.8 0 0 1-4.884 7.485 28.9 28.9 0 0 1-7.629 6.623 14.1 14.1 0 0 1-7.627 2.143 7.9 7.9 0 0 1-4.87-1.889l-9.938 5.706c-2.4 1.369-4.585 1.577-6.232.782-1.647-.796-2.731-2.605-2.934-5.239a46 46 0 0 1-.114-2.938c.019-10.067 3.567-21.221 9.313-31.114 5.733-9.898 13.671-18.532 22.417-23.559"/><path fill="#1b69ff" d="M53.882 5.372c-4.236 0-8.95 1.427-13.862 4.244-8.385 4.815-16.28 13.11-22.232 23.356-5.937 10.24-9.214 21.192-9.214 30.836 0 .918.033 1.917.109 2.897.175 2.345 1.097 4.046 2.606 4.781 1.538.74 3.564.47 5.712-.763l9.938-5.704a.565.565 0 0 1 .652.06 7.34 7.34 0 0 0 4.533 1.758 13.7 13.7 0 0 0 7.316-2.072 28.4 28.4 0 0 0 7.492-6.497 38.6 38.6 0 0 0 4.802-7.376.56.56 0 0 1 .217-.236l9.938-5.704a17.9 17.9 0 0 0 6.029-6.18 18.8 18.8 0 0 0 2.858-8.36c.08-1.036.109-2.082.109-3.027 0-9.53-3.186-16.619-8.997-19.967a15.87 15.87 0 0 0-8.006-2.046M13.174 73.003a5.34 5.34 0 0 1-2.37-.522c-1.883-.914-3.03-2.94-3.238-5.693a42 42 0 0 1-.109-2.977c0-9.832 3.33-20.981 9.374-31.392s14.084-18.847 22.64-23.76c8.637-4.966 16.8-5.748 22.966-2.196s9.564 10.986 9.564 20.924c0 .975-.033 2.045-.114 3.1a20.3 20.3 0 0 1-3.01 8.863 19.05 19.05 0 0 1-6.443 6.567l-9.773 5.62a39 39 0 0 1-4.884 7.448 29.6 29.6 0 0 1-7.775 6.745 14.93 14.93 0 0 1-7.941 2.22 8.6 8.6 0 0 1-4.898-1.777l-9.607 5.517a8.9 8.9 0 0 1-4.381 1.313z"/><path fill="#fff" d="M58.2 13.769c-4.727-2.718-11.258-2.331-18.465 1.809S25.997 26.826 21.274 34.97s-7.647 17.326-7.647 25.617c0 .857.014 1.625.08 2.445a2.31 2.31 0 0 0 1.127 2.04 2.64 2.64 0 0 0 2.451-.32l11.353-6.52v.015c.909-.523 1.803-.523 2.338.113a5.14 5.14 0 0 0 3.786 1.85 9.2 9.2 0 0 0 4.959-1.417 18.7 18.7 0 0 0 4.96-4.277 25.5 25.5 0 0 0 3.677-5.936 6.1 6.1 0 0 1 2.447-3.075l11.365-6.52a7.2 7.2 0 0 0 2.432-2.487 7.56 7.56 0 0 0 1.145-3.35c.066-.89.08-1.686.08-2.543.017-8.291-2.904-14.119-7.627-16.836"/><path fill="#1b69ff" d="M51.387 12.582c-3.469 0-7.35 1.168-11.366 3.476-6.89 3.957-13.378 10.773-18.257 19.192-4.878 8.418-7.586 17.414-7.586 25.338 0 .843.033 1.596.08 2.402a1.79 1.79 0 0 0 .833 1.586 2.1 2.1 0 0 0 1.912-.302l11.353-6.52a1 1 0 0 1 .109-.042c1.145-.617 2.262-.509 2.952.297a4.55 4.55 0 0 0 3.374 1.647 8.6 8.6 0 0 0 4.647-1.347 18.3 18.3 0 0 0 4.822-4.15 25 25 0 0 0 3.592-5.803 6.6 6.6 0 0 1 2.688-3.336l11.348-6.519a6.7 6.7 0 0 0 2.244-2.294c.59-.936.95-1.998 1.05-3.098a35 35 0 0 0 .096-2.507c0-7.815-2.607-13.62-7.364-16.358a12.9 12.9 0 0 0-6.53-1.667zm-35.734 53.22a2.4 2.4 0 0 1-1.05-.23 2.8 2.8 0 0 1-1.444-2.497 30 30 0 0 1-.095-2.488c0-8.116 2.746-17.31 7.724-25.894 4.995-8.582 11.617-15.545 18.683-19.596 7.141-4.104 13.894-4.748 19.01-1.802 5.106 2.94 7.912 9.087 7.912 17.312 0 .87-.029 1.68-.095 2.58a8.26 8.26 0 0 1-1.207 3.6 7.94 7.94 0 0 1-2.635 2.675L51.09 45.987a5.56 5.56 0 0 0-2.215 2.789 25.6 25.6 0 0 1-3.764 6.095 19.3 19.3 0 0 1-5.107 4.405 9.83 9.83 0 0 1-5.272 1.493 5.7 5.7 0 0 1-4.173-2.05c-.474-.569-1.303-.182-1.634.01-.033.014-.066.033-.095.043l-11.257 6.463a3.9 3.9 0 0 1-1.92.567"/><path fill="#1b69ff" d="M38.652 52.47c-.6.008-1.179-.214-1.619-.62-.796-.764-1.078-2.111-.75-3.694.548-2.695 2.635-5.243 4.741-5.803a2.36 2.36 0 0 1 2.29.56 3.93 3.93 0 0 1 .913 3.641c-.568 2.695-2.655 5.244-4.756 5.804a3.2 3.2 0 0 1-.819.11zM60.019 34.636a.56.56 0 0 1-.54-.411.55.55 0 0 1 .26-.625l3.03-1.739a.556.556 0 0 1 .754.206.55.55 0 0 1-.206.75l-3.03 1.743a.54.54 0 0 1-.268.076M54.084 21.559a.53.53 0 0 1-.28-.073.55.55 0 0 1-.278-.549.5.5 0 0 1 .07-.204l2.154-3.698a.55.55 0 0 1 .764-.21.55.55 0 0 1 .192.766l-2.149 3.693a.53.53 0 0 1-.473.275M39.736 22.96a.545.545 0 0 1-.548-.552v-3.485a.554.554 0 0 1 .764-.515.56.56 0 0 1 .352.515v3.486a.553.553 0 0 1-.568.55M25.388 38.03a.64.64 0 0 1-.284-.073l-2.134-1.233a.55.55 0 0 1-.063-.918.54.54 0 0 1 .612-.039l2.148 1.234a.546.546 0 0 1 .208.754.58.58 0 0 1-.487.274M16.406 59.67a.53.53 0 0 1-.468-.273.554.554 0 0 1 .203-.758l3.03-1.743a.555.555 0 0 1 .825.411.54.54 0 0 1-.276.55l-3.03 1.742a.6.6 0 0 1-.284.071"/><path fill="#1b69ff" d="M43.205 44.165a.54.54 0 0 1-.346-.121.556.556 0 0 1-.095-.782l16.265-20.04a.558.558 0 0 1 .869.697L43.633 43.96a.54.54 0 0 1-.428.206"/></g></svg>
